X: 55
T:Four Leafed Shamrock, The
M:4/4
L:1/8
C:Paddy O'Brien
S:Dan Cummins and Bev Buchannan
R:reel
B:O
K:Dmaj
fd~d2 edBc|d2ec dBAF|DEFB ABdf|e2df edBd|
fd~d2 edBc|dfec dBAF|DEFB ABdf|edef d3e:|
|dBAB defa|bfaf efdB|BAFB ABdf|eB~B2 egfe|
dBAB defa|bfaf edBA|DEFB ABdf|edef d3e:|

